korla/apps/symbolic/multimedia-video-player-symbolic.svg

<svg style="clip-rule:evenodd;fill-rule:evenodd;stroke-linejoin:round;stroke-miterlimit:2" version="1.1" viewBox="0 0 16 16" xmlns="http://www.w3.org/2000/svg">
 <path d="m1 1c-0.55 0-1 0.45-1 1v12c0 0.55 0.45 1 1 1h14c0.56 0 1-0.45 1-1v-13h-3.5l1.5 3h-2l-1.5-3h-2l1.5 3h-2l-1.5-3h-2l1.5 3h-2l-1.5-3h-1.5z" style="fill-opacity:.3;fill:rgb(223,223,223)"/>
 <g transform="matrix(1.84986,0,0,1.84986,-6.22077,-8.25237)">
  <path d="m6 8.064c0-0.228 0.118-0.44 0.312-0.56 0.194-0.119 0.436-0.13 0.639-0.028 0.817 0.408 1.997 0.998 2.873 1.436 0.223 0.111 0.364 0.339 0.364 0.588s-0.141 0.477-0.364 0.588c-0.876 0.438-2.056 1.028-2.873 1.436-0.203 0.102-0.445 0.091-0.639-0.028-0.194-0.12-0.312-0.332-0.312-0.56v-2.872z" style="fill:rgb(223,223,223)"/>
 </g>
 <path d="m2.5 1 1.5 3h2l-1.5-3h-2z" style="fill:rgb(223,223,223)"/>
 <g transform="translate(4.02978)">
  <path d="m2.5 1 1.5 3h2l-1.5-3h-2z" style="fill:rgb(223,223,223)"/>
 </g>
 <g transform="translate(7.98015)">
  <path d="m2.5 1 1.5 3h2l-1.5-3h-2z" style="fill:rgb(223,223,223)"/>
 </g>
</svg>

<svg xmlns="http://www.w3.org/2000/svg" width="16" height="16" version="1.1">
 <path style="fill:#dfdfdf" d="M 1,1 C 0.45,1 0,1.45 0,2 V 14 C 0,14.55 0.45,15 1,15 H 15 C 15.56,15 16,14.55 16,14 V 2 1 H 12.5 L 14,4 H 12 L 10.5,1 H 8.5 L 10,4 H 8 L 6.5,1 H 4.5 L 6,4 H 4 L 2.5,1 Z M 6,7 11,9.5 6,12 Z"/>
</svg>
